gtk/icons/gesture-two-finger-swipe-left-symbolic.svg

<svg
        xmlns='http://www.w3.org/2000/svg'
        xmlns:svg='http://www.w3.org/2000/svg'
        width='64'
        height='64'>
  <path
          clip-path='none'
          fill='url(#gpa:foreground) rgb(0,0,0)'
          fill-opacity='1'
          fill-rule='nonzero'
          d='M 38.271 6.004 C 34.7263 5.90772, 31.4529 7.89364, 29.901 11.082 C 29.1835 10.9876, 28.4571 10.9809, 27.738 11.062 C 24.367 11.461, 21.374 13.762, 20.242 17.148 L 12 17.148 L 12 10.148 L 2 19.648 L 12 29.148 L 12 22.148 L 20.049 22.148 C 20.7038 24.7988, 22.5243 27.0103, 25 28.162 L 25 47 L 24 47 L 24 39.186 C 24 36.866, 22.216 35, 20 35 C 17.784 35, 16 36.867, 16 39.186 L 16 60 L 56 60 C 58.216 60, 60 58.133, 60 55.814 L 60 34.186 C 60 31.866, 58.216 30, 56 30 C 53.784 30, 52 31.867, 52 34.186 L 52 39 L 51 39 L 51 28.186 C 51 25.866, 49.216 24, 47 24 C 44.784 24, 43 25.867, 43 28.186 L 43 39 L 42 39 L 42 23.043 C 44.2115 21.9512, 45.8765 19.9976, 46.604 17.641 C 48.029 12.998, 45.482 8.027, 40.881 6.473 C 40.0392 6.18743, 39.1595 6.02902, 38.271 6.003 Z M 38.171 8.998 C 38.7665 9.01716, 39.3559 9.12432, 39.92 9.316 C 43.0056 10.3468, 44.7012 13.6552, 43.736 16.762 C 43.4161 17.808, 42.8157 18.7463, 42 19.475 L 42 15.185 C 42 12.868, 40.216 11, 38 11 C 35.784 11, 34 12.867, 34 15.186 L 34 22.946 C 33.7294 23.429, 33.3928 23.8719, 33 24.262 L 33 20.186 C 33 17.866, 31.216 16, 29 16 C 26.784 16, 25 17.867, 25 20.186 L 25 24.666 C 23.095 23.1372, 22.3135 20.6021, 23.027 18.266 C 23.9667 15.1135, 27.2763 13.3119, 30.434 14.234 C 30.8637 14.364, 31.329 14.2946, 31.7022 14.045 C 32.0753 13.7954, 32.3171 13.3918, 32.361 12.945 L 32.371 12.922 C 33.2555 10.4998, 35.5936 8.91793, 38.171 8.998 Z M 34 27.303 L 34 39 L 33 39 L 33 27.926 C 33.347 27.741, 33.68 27.531, 34 27.303 Z'
          class='foreground foreground-fill'>
  </path>
</svg>

<svg xmlns="http://www.w3.org/2000/svg" width="64" height="64">
  <path d="M38.271 6.004a9.036 9.036 0 0 0-8.37 5.078 8.923 8.923 0 0 0-2.163-.02c-3.371.399-6.364 2.7-7.496 6.086H12v-7l-10 9.5 10 9.5v-7h8.049A9.018 9.018 0 0 0 25 28.162V47h-1v-7.814C24 36.866 22.216 35 20 35s-4 1.867-4 4.186V60h40c2.216 0 4-1.867 4-4.186V34.186C60 31.866 58.216 30 56 30s-4 1.867-4 4.186V39h-1V28.186C51 25.866 49.216 24 47 24s-4 1.867-4 4.186V39h-1V23.043a8.978 8.978 0 0 0 4.604-5.402c1.425-4.643-1.122-9.614-5.723-11.168a8.939 8.939 0 0 0-2.61-.47zm-.1 2.994a6.04 6.04 0 0 1 1.749.318 5.98 5.98 0 0 1 3.816 7.446A5.986 5.986 0 0 1 42 19.475v-4.29C42 12.868 40.216 11 38 11s-4 1.867-4 4.186v7.76a5.961 5.961 0 0 1-1 1.316v-4.076C33 17.866 31.216 16 29 16s-4 1.867-4 4.186v4.48a5.97 5.97 0 0 1-1.973-6.4 5.98 5.98 0 0 1 7.407-4.032 1.5 1.5 0 0 0 1.927-1.289 1.5 1.5 0 0 0 .01-.023 5.977 5.977 0 0 1 5.8-3.924zM34 27.303V39h-1V27.926c.347-.185.68-.395 1-.623z"/>
</svg>
